public/images/farms/wsote-bnb.svg

<svg width="160" height="160" viewBox="0 0 160 160" fill="none" xmlns="http://www.w3.org/2000/svg">
<g clip-path="url(#clip0)">
<path d="M48.045 119.028C44.8667 131.172 63.0449 146.449 88.6472 153.149C114.25 159.849 137.581 155.436 140.759 143.291C143.937 131.146 125.759 115.87 100.157 109.169C74.5546 102.469 51.2233 106.883 48.045 119.028Z" fill="#606063"/>
<path d="M136.924 149.273L152.346 132.988L42.9922 104.369L48.7128 126.187L136.924 149.273Z" fill="#606063"/>
<path d="M49.9337 108.293L8.07245 97.338C6.25796 96.8632 4.41259 97.9924 4.00962 99.8242L3.54142 101.953C2.60839 106.194 5.11954 110.433 9.28748 111.653L51.0994 123.892L49.9337 108.293Z" fill="#606063"/>
<path d="M43.2026 98.7096C39.5089 112.824 61.5267 130.811 92.3808 138.886C123.235 146.96 151.241 142.064 154.935 127.95C158.629 113.836 136.611 95.8488 105.757 87.7742C74.9028 79.6996 46.8963 84.5955 43.2026 98.7096Z" fill="url(#paint0_linear)"/>
<path fill-rule="evenodd" clip-rule="evenodd" d="M127.673 123.286C134.771 128.506 138.919 134.152 139.538 139.157L142.516 138.789C141.744 132.551 136.779 126.258 129.45 120.869C122.061 115.434 112.011 110.721 100.537 107.718C89.0628 104.716 77.9927 103.901 68.888 105.019C59.8593 106.128 52.4479 109.182 48.7196 114.242L51.1348 116.021C54.1263 111.961 60.5082 109.071 69.2536 107.997C77.9231 106.933 88.6081 107.698 99.7773 110.621C110.946 113.544 120.636 118.111 127.673 123.286Z" fill="#606063"/>
<path fill-rule="evenodd" clip-rule="evenodd" d="M56.7343 118.739C48.0136 111.615 44.7365 104.698 46.1049 99.4692C47.4733 94.2403 53.7186 89.8155 64.8112 87.8763C75.6178 85.9872 89.8893 86.7226 104.997 90.6764C120.105 94.6302 132.908 100.98 141.403 107.921C150.124 115.045 153.401 121.962 152.033 127.191C150.664 132.42 144.419 136.844 133.326 138.784C122.52 140.673 108.248 139.937 93.1403 135.984C78.0323 132.03 65.2301 125.68 56.7343 118.739ZM92.3808 138.886C61.5267 130.811 39.5089 112.824 43.2026 98.7096C46.8963 84.5955 74.9028 79.6996 105.757 87.7742C136.611 95.8488 158.629 113.836 154.935 127.95C151.241 142.064 123.235 146.96 92.3808 138.886Z" fill="#979797"/>
<path fill-rule="evenodd" clip-rule="evenodd" d="M45.1673 124.049L40.2305 104.926L43.1352 104.176L48.0721 123.299L45.1673 124.049Z" fill="url(#paint1_linear)"/>
<path fill-rule="evenodd" clip-rule="evenodd" d="M43.4691 106.189C43.4241 106.041 43.3812 105.893 43.3406 105.746C43.2656 105.473 43.1983 105.2 43.1386 104.929L42.997 104.389C42.9948 104.38 43.0025 104.372 43.0109 104.375C43.019 104.377 43.0266 104.37 43.0251 104.362C43.0236 104.353 43.0222 104.345 43.0207 104.337C42.9732 104.072 42.9333 103.807 42.9009 103.543C42.8931 103.479 42.8857 103.416 42.8788 103.352C42.8065 102.689 42.7824 102.031 42.8078 101.378C42.8079 101.378 42.8079 101.378 42.8079 101.377C42.8432 100.475 42.9734 99.5849 43.2025 98.7095C46.8962 84.5954 74.9027 79.6994 105.757 87.774C136.611 95.8486 158.629 113.836 154.935 127.95C154.706 128.826 154.383 129.666 153.972 130.469C153.972 130.469 153.972 130.47 153.972 130.47C153.528 131.338 152.981 132.163 152.337 132.945C152.332 132.951 152.326 132.958 152.321 132.964C152.319 132.967 152.318 132.969 152.318 132.972C152.318 132.977 152.322 132.982 152.327 132.983C152.332 132.984 152.335 132.989 152.336 132.993C152.336 132.996 152.335 133 152.333 133.002L151.725 133.644C151.655 133.72 151.584 133.795 151.511 133.87L150.275 135.175L150.273 135.177L138.793 147.299C131.986 156.33 111.197 159.051 88.6472 153.149C66.3446 147.312 49.6757 134.967 47.8505 123.854C47.7571 123.285 47.3667 122.8 46.8135 122.639L10.1271 111.91C5.98342 110.698 3.4722 106.499 4.36483 102.275L4.82393 100.103C5.21371 98.2581 7.06553 97.1133 8.88976 97.589L43.1386 106.52C43.3391 106.573 43.5217 106.39 43.4691 106.189ZM39.8119 102.553C39.7482 101.009 39.9029 99.4681 40.3002 97.9499C42.6255 89.0648 52.2303 83.9845 63.7779 81.9658C75.6114 79.8971 90.7702 80.751 106.516 84.8718C122.262 88.9926 135.896 95.6738 145.199 103.274C154.277 110.691 160.162 119.825 157.837 128.71C157.28 130.839 156.285 132.774 154.936 134.499C154.821 134.697 154.679 134.887 154.511 135.065L153.923 135.686C153.92 135.689 153.916 135.693 153.913 135.697C153.836 135.779 153.759 135.861 153.68 135.943C153.677 135.946 153.673 135.95 153.67 135.953L141.082 149.246C136.911 154.652 129.056 157.706 119.984 158.802C110.684 159.926 99.4667 159.082 87.8877 156.051C76.4351 153.054 66.3397 148.366 58.8095 142.91C51.73 137.78 46.4882 131.648 45.0667 125.253L9.28503 114.789C3.63618 113.137 0.212785 107.413 1.42965 101.655L1.88875 99.4823C2.63251 95.9628 6.16596 93.7783 9.64679 94.6861L39.8119 102.553Z" fill="url(#paint2_linear)"/>
<circle cx="57" cy="29" r="29" fill="#F0B90B"/>
<path d="M46.1848 29.0003L41.7478 33.4681L37.28 29.0003L41.7478 24.5325L46.1848 29.0003ZM57 18.1851L64.6415 25.8266L69.1093 21.3588L61.4678 13.7481L57 9.28027L52.5322 13.7481L44.9215 21.3588L49.3893 25.8266L57 18.1851ZM72.2522 24.5325L67.8152 29.0003L72.283 33.4681L76.72 29.0003L72.2522 24.5325ZM57 39.8155L49.3585 32.174L44.9215 36.6418L52.563 44.2833L57 48.7203L61.4678 44.2525L69.1093 36.611L64.6415 32.174L57 39.8155ZM57 33.4681L61.4678 29.0003L57 24.5325L52.5322 29.0003L57 33.4681Z" fill="#FFFDFA"/>
<g style="mix-blend-mode:multiply" opacity="0.1">
<path fill-rule="evenodd" clip-rule="evenodd" d="M57 55C71.3594 55 83 43.3594 83 29C83 14.6406 71.3594 3 57 3C42.6406 3 31 14.6406 31 29C31 43.3594 42.6406 55 57 55ZM57 58C73.0163 58 86 45.0163 86 29C86 12.9837 73.0163 0 57 0C40.9837 0 28 12.9837 28 29C28 45.0163 40.9837 58 57 58Z" fill="#191326"/>
</g>
<circle cx="106.5" cy="72.5" r="43.5" fill="white"/>
<g clip-path="url(#clip1)">
<path opacity="0.2" d="M89.993 73.1148C89.993 73.1148 88.4341 74.5917 88.5982 76.4788C88.7623 78.366 90.6494 80.1711 92.7006 79.9249C94.6698 79.7608 96.557 77.4634 95.4083 74.4276C94.2596 71.2277 87.3674 67.2073 97.9518 54.8998C97.9518 54.8998 92.8647 64.4996 99.6748 69.5046C103.695 72.3764 108.864 82.7966 102.547 87.1453C102.547 87.1453 116.249 84.1915 104.598 66.4688C104.598 66.4688 92.6186 49.4846 111.572 39.8027C111.572 39.8027 104.844 51.6999 113.459 59.0844C113.459 59.0844 124.7 68.438 125.602 73.6892C125.602 73.6892 129.705 87.8837 106.321 99.7809C106.321 99.7809 83.8393 87.8837 84.9059 75.084C84.9059 75.166 87.6136 71.6379 89.993 73.1148Z" fill="#FFCF65"/>
<path d="M89.993 75.8223C89.993 75.8223 88.4341 77.2992 88.5982 79.1864C88.7623 81.0735 90.6494 82.8786 92.7006 82.6324C94.7519 82.3863 96.557 80.171 95.4083 77.1351C94.2596 73.9352 87.3674 69.9148 97.9518 57.6074C97.9518 57.6074 92.8647 67.2071 99.6748 72.2122C103.695 75.0839 108.864 85.5042 102.547 89.8528C102.547 89.8528 116.249 86.899 104.598 69.1763C104.598 69.1763 92.6186 52.1921 111.572 42.5103C111.572 42.5103 104.844 54.4074 113.459 61.7919C113.459 61.7919 124.7 71.1455 125.602 76.3967C125.602 76.3967 129.705 90.5912 106.321 102.488C106.321 102.488 83.8393 90.5912 84.9059 77.7915C84.9059 77.8736 87.6136 74.3454 89.993 75.8223Z" fill="url(#paint3_linear)"/>
<path d="M132.495 57.033C132.33 54.8176 130.936 53.3408 128.884 53.2587C126.915 53.2587 124.864 53.0946 122.895 52.6844C118.71 51.9459 116.577 51.5357 112.885 49.4844C112.721 50.7152 112.803 52.2741 112.885 53.5869C116.413 55.392 118.136 55.5561 122.074 56.2945C124.208 56.7048 126.423 56.8689 128.638 56.9509C128.72 56.9509 128.802 56.9509 128.966 56.9509C128.966 57.2791 129.048 57.6073 129.048 57.9355C129.459 68.1917 127.572 77.8735 122.402 86.6528C118.546 93.2168 113.295 98.1397 106.731 101.422C106.485 101.504 106.321 101.504 106.075 101.422C98.7722 97.8116 93.2749 92.2322 89.3365 84.7657C86.793 79.9248 85.152 74.7557 84.3315 69.3404C83.8392 65.8943 83.5931 62.5303 83.6751 59.0842C83.6751 58.4278 83.7572 57.6894 83.7572 57.033C84.7418 56.9509 85.7264 56.9509 86.7109 56.8689C91.6339 56.4586 93.9313 56.1304 98.444 53.9971C98.6902 52.6844 98.8543 51.1254 99.9209 49.2383C95.5723 51.7818 92.9467 52.4382 87.9417 53.0126C86.4648 53.1767 84.9879 53.1767 83.511 53.3408C81.87 53.4228 80.4752 54.8997 80.3111 56.6227C80.229 58.0176 80.147 59.4945 80.0649 60.8893C80.147 65.8943 80.7213 70.8173 81.9521 75.5762C83.8392 82.7965 87.0391 89.2784 91.798 94.9398C95.4902 99.2064 99.7568 102.57 104.762 104.95C105.828 105.442 106.813 105.442 107.88 104.95C113.377 102.324 118.054 98.55 121.91 93.627C128.228 85.5862 131.428 76.2325 132.33 65.9764C132.659 63.0226 132.659 59.9868 132.495 57.033Z" fill="url(#paint4_linear)"/>
</g>
<g style="mix-blend-mode:multiply" opacity="0.2">
<path fill-rule="evenodd" clip-rule="evenodd" d="M106.5 113.163C128.958 113.163 147.163 94.9576 147.163 72.5C147.163 50.0424 128.958 31.837 106.5 31.837C84.0424 31.837 65.837 50.0424 65.837 72.5C65.837 94.9576 84.0424 113.163 106.5 113.163ZM106.5 116C130.524 116 150 96.5244 150 72.5C150 48.4756 130.524 29 106.5 29C82.4756 29 63 48.4756 63 72.5C63 96.5244 82.4756 116 106.5 116Z" fill="#191326"/>
</g>
</g>
<defs>
<linearGradient id="paint0_linear" x1="105.757" y1="87.7742" x2="92.3808" y2="138.886" gradientUnits="userSpaceOnUse">
<stop stop-color="#404042"/>
<stop offset="1" stop-color="#48484B"/>
</linearGradient>
<linearGradient id="paint1_linear" x1="46.5673" y1="105.096" x2="41.7353" y2="123.129" gradientUnits="userSpaceOnUse">
<stop stop-color="#404042"/>
<stop offset="1" stop-color="#48484B"/>
</linearGradient>
<linearGradient id="paint2_linear" x1="73.4948" y1="80.1687" x2="89.0896" y2="164.62" gradientUnits="userSpaceOnUse">
<stop stop-color="#404042"/>
<stop offset="1" stop-color="#48484B"/>
</linearGradient>
<linearGradient id="paint3_linear" x1="84.8693" y1="72.4994" x2="125.932" y2="72.4994" gradientUnits="userSpaceOnUse">
<stop offset="0.1884" stop-color="#FFCF65"/>
<stop offset="0.5306" stop-color="#FF915A"/>
<stop offset="1" stop-color="#FF554E"/>
</linearGradient>
<linearGradient id="paint4_linear" x1="80.0649" y1="77.2786" x2="132.602" y2="77.2786" gradientUnits="userSpaceOnUse">
<stop offset="0.085341" stop-color="#FF554E"/>
<stop offset="0.9071" stop-color="#FFCF65"/>
</linearGradient>
<clipPath id="clip0">
<rect width="160" height="160" fill="white"/>
</clipPath>
<clipPath id="clip1">
<rect width="52.5116" height="65.4755" fill="white" transform="translate(80.0649 39.8027)"/>
</clipPath>
</defs>
</svg>

<svg xmlns="http://www.w3.org/2000/svg" xmlns:xlink="http://www.w3.org/1999/xlink" width="160" height="160" fill="none"  xmlns:v="https://vecta.io/nano"><g clip-path="url(#F)"><g fill="#606063"><path d="M48.045 119.028c-3.178 12.144 15 27.421 40.602 34.121s48.934 2.287 52.112-9.858-15-27.421-40.602-34.122-48.934-2.286-52.112 9.859z"/><path d="M136.924 149.273l15.422-16.285-109.354-28.619 5.721 21.818 88.211 23.086z"/><path d="M49.934 108.293L8.072 97.338c-1.814-.475-3.66.654-4.063 2.486l-.468 2.129a8.26 8.26 0 0 0 5.746 9.7l41.812 12.239-1.166-15.599z"/></g><path d="M43.203 98.71c-3.694 14.114 18.324 32.101 49.178 40.176s58.86 3.178 62.554-10.936-18.324-32.101-49.178-40.176-58.861-3.179-62.554 10.935z" fill="url(#A)"/><g fill-rule="evenodd"><path d="M127.673 123.286c7.098 5.22 11.246 10.866 11.865 15.871l2.978-.368c-.772-6.238-5.737-12.531-13.066-17.92-7.389-5.435-17.439-10.148-28.913-13.151s-22.544-3.817-31.649-2.699c-9.029 1.109-16.44 4.163-20.168 9.223l2.415 1.779c2.992-4.06 9.373-6.95 18.119-8.024 8.67-1.064 19.354-.299 30.524 2.624s20.859 7.49 27.896 12.665z" fill="#606063"/><path d="M56.734 118.739c-8.721-7.124-11.998-14.041-10.629-19.27s7.614-9.654 18.706-11.593c10.807-1.889 25.078-1.154 40.186 2.8s27.911 10.304 36.406 17.245c8.721 7.124 11.998 14.041 10.63 19.27s-7.614 9.653-18.707 11.593c-10.806 1.889-25.078 1.153-40.186-2.8s-27.91-10.304-36.406-17.245zm35.646 20.147c-30.854-8.075-52.872-26.062-49.178-40.176s31.7-19.01 62.554-10.935 52.872 26.062 49.178 40.176-31.7 19.01-62.554 10.936z" fill="#979797"/><path d="M45.167 124.049l-4.937-19.123 2.905-.75 4.937 19.123-2.905.75z" fill="url(#B)"/><path d="M43.469 106.189l-.128-.443-.202-.817-.142-.54c.022-.012.03-.019.028-.027l-.004-.025-.12-.794-.022-.191c-.072-.663-.096-1.321-.071-1.974.035-.903.166-1.793.395-2.668 3.694-14.114 31.7-19.01 62.555-10.936s52.872 26.062 49.178 40.176a12.4 12.4 0 0 1-.963 2.519 13.7 13.7 0 0 1-1.635 2.476l-.016.019c.011.02.014.025.015.029l-.611.651-12.932 13.655c-6.807 9.031-27.596 11.752-50.146 5.85-22.303-5.837-38.971-18.182-40.797-29.295-.093-.569-.484-1.054-1.037-1.215L10.127 111.91a8.26 8.26 0 0 1-5.762-9.635l.459-2.172c.39-1.845 2.242-2.99 4.066-2.514l34.249 8.931a.27.27 0 0 0 .331-.331zm-3.657-3.636c-.064-1.544.091-3.085.488-4.603 2.325-8.885 11.93-13.965 23.478-15.984 11.834-2.069 26.992-1.215 42.738 2.906s29.38 10.802 38.683 18.402c9.078 7.417 14.963 16.551 12.638 25.436-.557 2.129-1.552 4.064-2.901 5.789a3.08 3.08 0 0 1-.425.566l-13.429 14.181c-4.171 5.406-12.026 8.46-21.098 9.556-9.3 1.124-20.517.28-32.096-2.751-11.453-2.997-21.548-7.685-29.078-13.141-7.08-5.13-12.321-11.262-13.743-17.657L9.285 114.789a11.26 11.26 0 0 1-7.855-13.134l.459-2.173c.744-3.519 4.277-5.704 7.758-4.796l30.165 7.867z" fill="url(#C)"/></g><circle cx="57" cy="29" r="29" fill="#f0b90b"/><path d="M46.185 29l-4.437 4.468L37.28 29l4.468-4.468L46.185 29zM57 18.185l7.641 7.642 4.468-4.468-7.642-7.611L57 9.28 44.922 21.359l4.468 4.468L57 18.185zm15.252 6.347L67.815 29l4.468 4.468L76.72 29l-4.468-4.468zM57 39.816l-7.642-7.642-4.437 4.468L57 48.72l12.109-12.109-4.468-4.437L57 39.816zm0-6.347L61.468 29 57 24.533 52.532 29 57 33.468z" fill="#fffdfa"/><g style="mix-blend-mode:multiply" opacity=".1"><path fill-rule="evenodd" d="M57 55c14.359 0 26-11.641 26-26S71.359 3 57 3 31 14.641 31 29s11.641 26 26 26zm0 3c16.016 0 29-12.984 29-29S73.016 0 57 0 28 12.984 28 29s12.984 29 29 29z" fill="#191326"/></g><circle cx="106.5" cy="72.5" r="43.5" fill="#fff"/><g clip-path="url(#G)"><path opacity=".2" d="M89.993 73.115s-1.559 1.477-1.395 3.364 2.051 3.692 4.102 3.446c1.969-.164 3.856-2.462 2.708-5.497-1.149-3.2-8.041-7.22 2.544-19.528 0 0-5.087 9.6 1.723 14.605 4.02 2.872 9.189 13.292 2.872 17.641 0 0 13.702-2.954 2.051-20.677 0 0-11.979-16.984 6.974-26.666 0 0-6.728 11.897 1.887 19.282 0 0 11.241 9.354 12.143 14.605 0 0 4.103 14.195-19.281 26.092 0 0-22.482-11.897-21.415-24.697 0 .082 2.708-3.446 5.087-1.969z" fill="#ffcf65"/><path d="M89.993 75.822s-1.559 1.477-1.395 3.364 2.051 3.692 4.102 3.446 3.856-2.461 2.708-5.497c-1.149-3.2-8.041-7.22 2.544-19.528 0 0-5.087 9.6 1.723 14.605 4.02 2.872 9.189 13.292 2.872 17.641 0 0 13.702-2.954 2.051-20.677 0 0-11.979-16.984 6.974-26.666 0 0-6.728 11.897 1.887 19.282 0 0 11.241 9.354 12.143 14.605 0 0 4.103 14.195-19.281 26.091 0 0-22.482-11.897-21.415-24.696 0 .082 2.708-3.446 5.087-1.969z" fill="url(#D)"/><path d="M132.495 57.033c-.165-2.215-1.559-3.692-3.611-3.774-1.969 0-4.02-.164-5.989-.574-4.185-.738-6.318-1.149-10.01-3.2-.164 1.231-.082 2.79 0 4.102 3.528 1.805 5.251 1.969 9.189 2.708 2.134.41 4.349.574 6.564.656h.328c0 .328.082.656.082.985.411 10.256-1.476 19.938-6.646 28.717-3.856 6.564-9.107 11.487-15.671 14.769-.246.082-.41.082-.656 0-7.303-3.61-12.8-9.19-16.739-16.656-2.543-4.841-4.184-10.01-5.005-15.425-.492-3.446-.738-6.81-.656-10.256 0-.656.082-1.395.082-2.051.985-.082 1.969-.082 2.954-.164 4.923-.41 7.22-.738 11.733-2.872.246-1.313.41-2.872 1.477-4.759-4.349 2.543-6.974 3.2-11.979 3.774-1.477.164-2.954.164-4.431.328-1.641.082-3.036 1.559-3.2 3.282l-.246 4.267c.082 5.005.656 9.928 1.887 14.687 1.887 7.22 5.087 13.702 9.846 19.364 3.692 4.267 7.959 7.63 12.964 10.01 1.066.492 2.051.492 3.118 0 5.497-2.626 10.174-6.4 14.03-11.323 6.318-8.041 9.518-17.394 10.42-27.651.329-2.954.329-5.99.165-8.943z" fill="url(#E)"/></g><g style="mix-blend-mode:multiply" opacity=".2"><path fill-rule="evenodd" d="M106.5 113.163c22.458 0 40.663-18.205 40.663-40.663S128.958 31.837 106.5 31.837 65.837 50.042 65.837 72.5s18.205 40.663 40.663 40.663zm0 2.837c24.024 0 43.5-19.476 43.5-43.5S130.524 29 106.5 29 63 48.476 63 72.5 82.476 116 106.5 116z" fill="#191326"/></g></g><defs><linearGradient id="A" x1="105.757" y1="87.774" x2="92.381" y2="138.886" xlink:href="#H"><stop stop-color="#404042"/><stop offset="1" stop-color="#48484b"/></linearGradient><linearGradient id="B" x1="46.567" y1="105.096" x2="41.735" y2="123.129" xlink:href="#H"><stop stop-color="#404042"/><stop offset="1" stop-color="#48484b"/></linearGradient><linearGradient id="C" x1="73.495" y1="80.169" x2="89.09" y2="164.62" xlink:href="#H"><stop stop-color="#404042"/><stop offset="1" stop-color="#48484b"/></linearGradient><linearGradient id="D" x1="84.869" y1="72.499" x2="125.932" y2="72.499" xlink:href="#H"><stop offset=".188" stop-color="#ffcf65"/><stop offset=".531" stop-color="#ff915a"/><stop offset="1" stop-color="#ff554e"/></linearGradient><linearGradient id="E" x1="80.065" y1="77.279" x2="132.602" y2="77.279" xlink:href="#H"><stop offset=".085" stop-color="#ff554e"/><stop offset=".907" stop-color="#ffcf65"/></linearGradient><clipPath id="F"><path fill="#fff" d="M0 0h160v160H0z"/></clipPath><clipPath id="G"><path fill="#fff" transform="translate(80.065 39.803)" d="M0 0h52.512v65.476H0z"/></clipPath><linearGradient id="H" gradientUnits="userSpaceOnUse"/></defs></svg>
